public/icon-plus.svg

<svg fill="none" height="25" viewBox="0 0 25 25" width="25" xmlns="http://www.w3.org/2000/svg"><path clip-rule="evenodd" d="m13.8333 7.5h-2v4h-3.99999v2h3.99999v4h2v-4h4v-2h-4zm-1-5c-5.51999 0-9.99999 4.48-9.99999 10s4.48 10 9.99999 10c5.52 0 10-4.48 10-10s-4.48-10-10-10zm0 18c-4.40999 0-7.99999-3.59-7.99999-8s3.59-8 7.99999-8c4.41 0 8 3.59 8 8s-3.59 8-8 8z" fill="#5c00dc" fill-rule="evenodd"/></svg>

<svg width="25" height="25" viewBox="0 0 25 25" fill="none" xmlns="http://www.w3.org/2000/svg">
<path fill-rule="evenodd" clip-rule="evenodd" d="M13.8333 7.5H11.8333V11.5H7.83331V13.5H11.8333V17.5H13.8333V13.5H17.8333V11.5H13.8333V7.5ZM12.8333 2.5C7.31331 2.5 2.83331 6.98 2.83331 12.5C2.83331 18.02 7.31331 22.5 12.8333 22.5C18.3533 22.5 22.8333 18.02 22.8333 12.5C22.8333 6.98 18.3533 2.5 12.8333 2.5ZM12.8333 20.5C8.42331 20.5 4.83331 16.91 4.83331 12.5C4.83331 8.09 8.42331 4.5 12.8333 4.5C17.2433 4.5 20.8333 8.09 20.8333 12.5C20.8333 16.91 17.2433 20.5 12.8333 20.5Z" fill="#5C00DC"/>
</svg>
